X:1
T:Symphony No. 8 'Unfinished' (theme)
C:Franz Schubert
M:3/4
L:1/8
Q:1/4=92
K:Bm
% Opening statement — oboe/clarinet lyrical theme
^G2 A2 B2 | A2 ^G2 F2 | B2 A2 ^G2 | F4 B2 |
% Second phrase
^G2 A2 B2 | A2 G2 F2 | ^G2 F2 ^G2 | A4 G2 |
% Closing cadence
B4 A2 | B6 |]
